src/assets/img/shop/circle.svg

<svg height="57.35" width="58.25" xmlns:xlink="http://www.w3.org/1999/xlink" xmlns="http://www.w3.org/2000/svg"><use height="64.5" transform="translate(-7.35 -7.15)" width="65.6" xlink:href="#a"/><defs><use height="57.35" transform="translate(7.35 7.15)" width="58.25" xlink:href="#b" id="a"/><use height="57.35" width="58.25" xlink:href="#c" id="b"/><path d="m43.65 3.45.45 7.4 7.35-.9-2.15 7.1 7.15 1.65-4.4 5.95 6.2 4.05-6.2 4 4.4 5.95-7.15 1.65 2.15 7.1-7.35-.9-.45 7.4-6.6-3.35-2.85 6.8-5.1-5.4-5.05 5.4-2.9-6.8-6.6 3.35-.4-7.4-7.35.9 2.15-7.1-7.2-1.65L6.2 32.7l-6.2-4 6.2-4.05-4.45-5.95 7.2-1.65-2.15-7.1 7.35.9.4-7.4 6.6 3.35 2.9-6.8 5.05 5.35L34.2 0l2.85 6.8 6.6-3.35" fill="#f39" fill-rule="evenodd" id="c"/></defs></svg>

<?xml version="1.0" encoding="UTF-8" standalone="no"?>
<svg
   height="57.349998"
   width="58.25"
   version="1.1"
   id="svg3256"
   sodipodi:docname="circle.svg"
   inkscape:version="1.1 (c4e8f9ed74, 2021-05-24)"
   xmlns:inkscape="http://www.inkscape.org/namespaces/inkscape"
   xmlns:sodipodi="http://sodipodi.sourceforge.net/DTD/sodipodi-0.dtd"
   xmlns:xlink="http://www.w3.org/1999/xlink"
   xmlns="http://www.w3.org/2000/svg"
   xmlns:svg="http://www.w3.org/2000/svg">
  <sodipodi:namedview
     id="namedview3258"
     pagecolor="#505050"
     bordercolor="#eeeeee"
     borderopacity="1"
     inkscape:pageshadow="0"
     inkscape:pageopacity="0"
     inkscape:pagecheckerboard="0"
     showgrid="false"
     inkscape:zoom="4.9094201"
     inkscape:cx="-19.350554"
     inkscape:cy="24.646495"
     inkscape:current-layer="svg3256" />
  <g
     transform="translate(29.05,28.7)"
     id="g3243">
    <use
       height="64.5"
       transform="translate(-36.4,-35.85)"
       width="65.599998"
       xlink:href="#sprite0"
       id="use3241"
       x="0"
       y="0" />
  </g>
  <defs
     id="defs3254">
    <g
       id="sprite0">
      <use
         height="57.349998"
         transform="translate(7.35,7.15)"
         width="58.25"
         xlink:href="#sprite1"
         id="use3245"
         x="0"
         y="0" />
    </g>
    <g
       id="sprite1">
      <use
         height="57.349998"
         width="58.25"
         xlink:href="#shape0"
         id="use3248"
         x="0"
         y="0" />
    </g>
    <g
       id="shape0">
      <path
         d="m 43.65,3.45 0.45,7.4 7.35,-0.9 -2.15,7.1 7.15,1.65 -4.4,5.95 6.2,4.05 -6.2,4 4.4,5.95 -7.15,1.65 2.15,7.1 -7.35,-0.9 -0.45,7.4 -6.6,-3.35 -2.85,6.8 -5.1,-5.4 -5.05,5.4 -2.9,-6.8 -6.6,3.35 -0.4,-7.4 L 6.8,47.4 8.95,40.3 1.75,38.65 6.2,32.7 0,28.7 6.2,24.65 1.75,18.7 8.95,17.05 6.8,9.95 l 7.35,0.9 0.4,-7.4 6.6,3.35 2.9,-6.8 5.05,5.35 5.1,-5.35 2.85,6.8 6.6,-3.35"
         fill="#ff3399"
         fill-rule="evenodd"
         stroke="none"
         id="path3251" />
    </g>
  </defs>
</svg>
